X:1
T:Störl, 87.87.77
T:Störl, 87.87.77
T:Johann Georg Christian Störl, 1744
T:Public Domain Courtesy of the Cyber Hymnal™
C:Johann Georg Christian Störl, 1744
Z:Public Domain
Z:Courtesy of the Cyber Hymnal™
%%score ( 1 2 ) ( 3 4 )
L:1/8
Q:1/4=110
M:4/4
K:A
V:1 treble 
V:2 treble 
V:3 bass 
V:4 bass 
V:1
 [CE]2 (AG) [DF]2 F2 | [^DF]2 (BA) [EG]2 E2 | [EA]2 [EB]2 [Ec]2 (dc) | [FB]2 B2 [CA]4 | %4
 E2 (AG) [DF]2 [CF]2 | F2 (BA) [EG]2 E2 | [EB]2 [Ec]2 A2 [EG]2 | [EF]2 [^DF]2 E4 | %8
 [EB]2 [Ec]2 [Ed]2 [Ec]2 | [FB]2 (BA) [EG]4 | [Ee]2 (dc) [B,B]2 [Ec]2 | B2 z D [CA]4 |] %12
V:2
 x2 E2 x (FE) x | x2 F2 x4 | x6 A2 | x2 (ED) x4 | x2 C2 x4 | F2 F2 x4 | x4 (C^D) x2 | x4 E4 | x8 | %9
 x2 ^D2 x4 | x2 F2 x4 | E3 B2 x3 |] %12
V:3
 [A,,A,]2 [C,A,]2 [D,A,]2 A,2 | [B,,B,]2 [^D,B,]2 [E,B,]2 [E,G,]2 | [C,A,]2 [E,G,]2 A,2 [F,A,]2 | %3
 [D,A,]2 [E,G,]2 [A,,A,]4 | [C,A,]2 [A,,A,]2 [D,A,]2 ^A,2 | [^D,B,]2 (^DC) [E,B,]2 [E,G,]2 | %6
 [E,G,]2 [C,G,]2 [F,A,]2 B,2 | B,3 z [E,G,]4 | G,2 [C,A,]2 (F,G,) A,2 | [^D,B,]2 [B,,B,]2 [E,B,]4 | %10
 [C,A,]2 [D,A,]2 [E,G,]2 A,2 | [E,A,]2 [E,G,]2 [A,,A,]4 |] %12
V:4
 x6 (D,C,) | x8 | x8 | x8 | x6 (F,E,) | x2 B,,2 x4 | x6 (G,,A,,) | B,,2 (B,,2 A,) x3 | %8
 (E,D,) x B,,2 (A,,C,) x | x8 | x6 (C,D,) | x8 |] %12

